src/assets/whatsapp.svg

<svg width="20" height="20" viewBox="0 0 20 20" fill="none" xmlns="http://www.w3.org/2000/svg">
<path d="M10.0025 0H9.9975C4.48375 0 0 4.485 0 10C0 12.1875 0.705 14.215 1.90375 15.8612L0.6575 19.5763L4.50125 18.3475C6.0825 19.395 7.96875 20 10.0025 20C15.5162 20 20 15.5138 20 10C20 4.48625 15.5162 0 10.0025 0Z" fill="#4CAF50"/>
<path d="M15.8212 14.1212C15.5799 14.8025 14.6224 15.3675 13.8587 15.5325C13.3362 15.6437 12.6537 15.7325 10.3562 14.78C7.41744 13.5625 5.52494 10.5762 5.37744 10.3825C5.23619 10.1887 4.18994 8.80123 4.18994 7.36623C4.18994 5.93123 4.91869 5.23248 5.21244 4.93248C5.45369 4.68623 5.85244 4.57373 6.23494 4.57373C6.35869 4.57373 6.46994 4.57998 6.56994 4.58498C6.86369 4.59748 7.01119 4.61498 7.20494 5.07873C7.44619 5.65998 8.03369 7.09498 8.10369 7.24248C8.17494 7.38998 8.24619 7.58998 8.14619 7.78373C8.05244 7.98373 7.96994 8.07248 7.82244 8.24248C7.67494 8.41248 7.53494 8.54248 7.38744 8.72498C7.25244 8.88373 7.09994 9.05373 7.26994 9.34748C7.43994 9.63498 8.02744 10.5937 8.89244 11.3637C10.0087 12.3575 10.9137 12.675 11.2374 12.81C11.4787 12.91 11.7662 12.8862 11.9424 12.6987C12.1662 12.4575 12.4424 12.0575 12.7237 11.6637C12.9237 11.3812 13.1762 11.3462 13.4412 11.4462C13.7112 11.54 15.1399 12.2462 15.4337 12.3925C15.7274 12.54 15.9212 12.61 15.9924 12.7337C16.0624 12.8575 16.0624 13.4387 15.8212 14.1212Z" fill="#FAFAFA"/>
</svg>

<svg width="20" height="20" fill="none" xmlns="http://www.w3.org/2000/svg"><path d="M10.002 0h-.005C4.485 0 0 4.485 0 10c0 2.188.705 4.215 1.904 5.861L.658 19.576 4.5 18.347A9.913 9.913 0 0 0 10.002 20C15.517 20 20 15.514 20 10S15.516 0 10.002 0Z" fill="#4CAF50"/><path d="M15.821 14.121c-.241.681-1.199 1.246-1.962 1.412-.523.11-1.205.2-3.503-.753-2.939-1.217-4.831-4.204-4.979-4.397-.14-.194-1.187-1.582-1.187-3.017 0-1.435.729-2.134 1.022-2.434.242-.246.64-.358 1.023-.358.124 0 .235.006.335.011.294.012.441.03.635.494.241.581.829 2.016.899 2.163.07.148.142.348.042.542-.094.2-.176.288-.324.458-.147.17-.287.3-.435.483-.135.159-.287.329-.117.622.17.288.757 1.247 1.622 2.017 1.117.993 2.022 1.311 2.345 1.446.242.1.53.076.705-.111.224-.242.5-.642.782-1.035.2-.283.452-.318.717-.218.27.094 1.699.8 1.993.947.293.147.487.217.558.34.07.124.07.706-.17 1.388Z" fill="#FAFAFA"/></svg>
